img/app.svg

<svg xmlns="http://www.w3.org/2000/svg"  viewBox="0 0 256 256" width="256px" height="256px">
    <path d="M 28.875 0 C 28.855469 0.0078125 28.832031 0.0195313 28.8125 0.03125 L 0.8125 5.3125 C 0.335938 5.402344 -0.0078125 5.824219 0 6.3125 L 0 43.59375 C -0.0078125 44.082031 0.335938 44.503906 0.8125 44.59375 L 28.8125 49.96875 C 29.101563 50.023438 29.402344 49.949219 29.632813 49.761719 C 29.859375 49.574219 29.996094 49.296875 30 49 L 30 40 L 49 40 C 49.550781 40 50 39.550781 50 39 L 50 11 C 50 10.449219 49.550781 10 49 10 L 30 10 L 30 1 C 30.003906 0.710938 29.878906 0.4375 29.664063 0.246094 C 29.449219 0.0546875 29.160156 -0.0351563 28.875 0 Z M 28 2.1875 L 28 10.6875 C 27.941406 10.882813 27.941406 11.085938 28 11.28125 L 28 38.8125 C 27.972656 38.945313 27.972656 39.085938 28 39.21875 L 28 47.8125 L 2 42.78125 L 2 7.125 Z M 30 12 L 48 12 L 48 38 L 30 38 L 30 35 L 31.59375 35 C 32.292969 34.898438 37.992188 27.605469 37.09375 26.90625 C 36.394531 26.207031 33.992188 30.085938 31.09375 32.1875 L 30 32.1875 L 30 25.5 C 31.546875 26.53125 32.984375 27.234375 33.3125 26.90625 C 33.824219 26.394531 31.925781 25.078125 30 23.28125 L 30 17.8125 L 31.6875 17.8125 L 32.8125 18.8125 C 33.011719 19.011719 33.207031 19.011719 33.40625 18.8125 L 34.1875 18 C 34.386719 17.800781 34.386719 17.605469 34.1875 17.40625 L 31.90625 15.09375 C 31.804688 14.992188 31.601563 14.90625 31.5 14.90625 L 30 14.90625 Z M 19.1875 14.8125 L 10.09375 15.8125 L 10.09375 33.90625 L 19.5 34.8125 L 19.5 31.09375 L 13.59375 30.8125 L 13.59375 26.5 L 18.8125 26.59375 L 18.8125 23 L 13.59375 23.09375 L 13.59375 18.90625 L 19.1875 18.5 Z M 38.3125 15 C 37.613281 15.101563 32.011719 22.394531 32.8125 23.09375 C 33.511719 23.792969 35.914063 19.914063 38.8125 17.8125 L 42.09375 17.8125 L 42.09375 21.59375 L 41.09375 22.59375 C 40.894531 22.792969 40.894531 22.988281 41.09375 23.1875 L 41.90625 24 C 42.105469 24.199219 42.300781 24.199219 42.5 24 L 44.8125 21.6875 C 44.914063 21.585938 45 21.414063 45 21.3125 L 45 15.6875 C 45 15.289063 44.707031 15 44.40625 15 Z M 36.9375 23.03125 C 36.839844 23.035156 36.738281 23.042969 36.6875 23.09375 C 35.988281 23.792969 39.992188 26.101563 42.09375 29 L 42.09375 32.1875 L 38.3125 32.1875 L 37.1875 31.1875 C 36.988281 30.988281 36.792969 30.988281 36.59375 31.1875 L 35.8125 32 C 35.613281 32.199219 35.613281 32.394531 35.8125 32.59375 L 38.09375 34.90625 C 38.195313 35.007813 38.398438 35.09375 38.5 35.09375 L 44.3125 35.09375 C 44.613281 35.09375 44.90625 34.800781 44.90625 34.5 L 44.90625 28.59375 C 44.90625 27.84375 38.410156 22.980469 36.9375 23.03125 Z"/>
</svg>

<svg xmlns="http://www.w3.org/2000/svg" xmlns:xlink="http://www.w3.org/1999/xlink" viewBox="0,0,256,256" width="256px" height="256px" fill-rule="nonzero" fill="#cccccc">
<g fill="#cccccc" fill-rule="nonzero" stroke="none" stroke-width="1" stroke-linecap="butt" stroke-linejoin="miter" stroke-miterlimit="10" stroke-dasharray="" stroke-dashoffset="0" font-family="none" font-weight="none" font-size="none" text-anchor="none" style="mix-blend-mode: normal">
    <g transform="scale(5.12,5.12)">
        <path d="M28.875,0c-0.01953,0.00781 -0.04297,0.01953 -0.0625,0.03125l-28,5.28125c-0.47656,0.08984 -0.82031,0.51172 -0.8125,1v37.28125c-0.00781,0.48828 0.33594,0.91016 0.8125,1l28,5.375c0.28906,0.05469 0.58984,-0.01953 0.82031,-0.20703c0.22656,-0.1875 0.36328,-0.46484 0.36719,-0.76172v-9h19c0.55078,0 1,-0.44922 1,-1v-28c0,-0.55078 -0.44922,-1 -1,-1h-19v-9c0.00391,-0.28906 -0.12109,-0.5625 -0.33594,-0.75391c-0.21484,-0.19141 -0.50391,-0.28125 -0.78906,-0.24609zM28,2.1875v8.5c-0.05859,0.19531 -0.05859,0.39844 0,0.59375v27.53125c-0.02734,0.13281 -0.02734,0.27344 0,0.40625v8.59375l-26,-5.03125v-35.65625zM30,12h18v26h-18v-3h1.59375c0.69922,-0.10156 6.39844,-7.39453 5.5,-8.09375c-0.69922,-0.69922 -3.10156,3.17969 -6,5.28125h-1.09375v-6.6875c1.54688,1.03125 2.98438,1.73438 3.3125,1.40625c0.51172,-0.51172 -1.38672,-1.82812 -3.3125,-3.625v-5.46875h1.6875l1.125,1c0.19922,0.19922 0.39453,0.19922 0.59375,0l0.78125,-0.8125c0.19922,-0.19922 0.19922,-0.39453 0,-0.59375l-2.28125,-2.3125c-0.10156,-0.10156 -0.30469,-0.1875 -0.40625,-0.1875h-1.5zM19.1875,14.8125l-9.09375,1v18.09375l9.40625,0.90625v-3.71875l-5.90625,-0.28125v-4.3125l5.21875,0.09375v-3.59375l-5.21875,0.09375v-4.1875l5.59375,-0.40625zM38.3125,15c-0.69922,0.10156 -6.30078,7.39453 -5.5,8.09375c0.69922,0.69922 3.10156,-3.17969 6,-5.28125h3.28125v3.78125l-1,1c-0.19922,0.19922 -0.19922,0.39453 0,0.59375l0.8125,0.8125c0.19922,0.19922 0.39453,0.19922 0.59375,0l2.3125,-2.3125c0.10156,-0.10156 0.1875,-0.27344 0.1875,-0.375v-5.625c0,-0.39844 -0.29297,-0.6875 -0.59375,-0.6875zM36.9375,23.03125c-0.09766,0.00391 -0.19922,0.01172 -0.25,0.0625c-0.69922,0.69922 3.30469,3.00781 5.40625,5.90625v3.1875h-3.78125l-1.125,-1c-0.19922,-0.19922 -0.39453,-0.19922 -0.59375,0l-0.78125,0.8125c-0.19922,0.19922 -0.19922,0.39453 0,0.59375l2.28125,2.3125c0.10156,0.10156 0.30469,0.1875 0.40625,0.1875h5.8125c0.30078,0 0.59375,-0.29297 0.59375,-0.59375v-5.90625c0,-0.75 -6.49609,-5.61328 -7.96875,-5.5625z"></path>
    </g>
    </g>
</svg>
